pix_core/i/configlock.svg

<!DOCTYPE svg PUBLIC "-//W3C//DTD SVG 1.1//EN" "http://www.w3.org/Graphics/SVG/1.1/DTD/svg11.dtd" [
	<!ENTITY ns_flows "http://ns.adobe.com/Flows/1.0/">
]><svg xmlns="http://www.w3.org/2000/svg" width="16" height="16" viewBox="0 0 16 16" preserveAspectRatio="xMinYMid meet" overflow="visible"><path d="M6 13.7c0-.1-.6-.2-.9-.4l-1.8 1.2c-.7-.5-1.3-1.1-1.8-1.9l1.2-1.8c-.2-.4-.4-.8-.5-1.2L.1 9.3C0 8.9 0 8.4 0 8s0-.9.1-1.3l2.1-.4c.1-.4.3-.8.5-1.2L1.5 3.4C2 2.6 2.6 2 3.4 1.5l1.8 1.2c.4-.2.8-.4 1.2-.5L6.8.1C7.1 0 7.6 0 8 0s.9 0 1.3.1l.4 2.1c.4.1.8.3 1.2.5l1.8-1.2c.7.5 1.3 1.1 1.8 1.9l-1.2 1.8c.2.4.4.8.5 1.2l2.1.4c.1.3.1.8.1 1.2s0 .9-.1 1.3l-.4.1c-.1-.8-.5-1.6-1.1-2.2-.8-.8-1.8-1.2-2.8-1.2-.8 0-1.5.2-2.1.6C9.1 6.2 8.6 6 8 6c-1.1 0-1.9.9-1.9 2 0 1 .6 1.7 1.5 1.9 0 0 0 .2 0 .2-.4.1-.7.3-1 .5-.4.4-.6.9-.6 1.4v1.7zm8.5-3.7v1h.5c.5 0 1 .5 1 1v3c0 .5-.5 1-1 1H8c-.5 0-1-.5-1-1v-3c0-.5.4-1 1-1h.6v-1c0-1.6 1.3-3 2.9-3 1.7 0 3 1.4 3 3zm-3 2c-.5 0-1 .4-1 1 0 .4.2.7.6.9l-.1.1-.5 1h2l-.5-1v-.1c.3-.2.6-.5.6-.9-.1-.5-.5-1-1.1-1zm0-3c-.5 0-1 .4-1 1v1h1.9v-1c.1-.5-.3-1-.9-1z" fill="#7575E0"/></svg>

<?xml version="1.0" encoding="utf-8"?>
<!-- Generator: Adobe Illustrator 15.1.0, SVG Export Plug-In  -->
<!DOCTYPE svg PUBLIC "-//W3C//DTD SVG 1.1//EN" "http://www.w3.org/Graphics/SVG/1.1/DTD/svg11.dtd" [
	<!ENTITY ns_flows "http://ns.adobe.com/Flows/1.0/">
]>
<svg version="1.1"
	 xmlns="http://www.w3.org/2000/svg" xmlns:xlink="http://www.w3.org/1999/xlink" xmlns:a="http://ns.adobe.com/AdobeSVGViewerExtensions/3.0/"
	 x="0px" y="0px" width="16px" height="16px" viewBox="0 0 16 16" style="overflow:visible;enable-background:new 0 0 16 16;"
	 xml:space="preserve" preserveAspectRatio="xMinYMid meet">
<defs>
</defs>
<path style="fill:#999999;" d="M6,13.7c0-0.1-0.6-0.2-0.9-0.4l-1.8,1.2C2.6,14,2,13.4,1.5,12.6l1.2-1.8c-0.2-0.4-0.4-0.8-0.5-1.2
	L0.1,9.3C0,8.9,0,8.4,0,8c0-0.4,0-0.9,0.1-1.3l2.1-0.4c0.1-0.4,0.3-0.8,0.5-1.2L1.5,3.4C2,2.6,2.6,2,3.4,1.5l1.8,1.2
	c0.4-0.2,0.8-0.4,1.2-0.5l0.4-2.1C7.1,0,7.6,0,8,0s0.9,0,1.3,0.1l0.4,2.1c0.4,0.1,0.8,0.3,1.2,0.5l1.8-1.2C13.4,2,14,2.6,14.5,3.4
	l-1.2,1.8c0.2,0.4,0.4,0.8,0.5,1.2l2.1,0.4C16,7.1,16,7.6,16,8s0,0.9-0.1,1.3l-0.4,0.1c-0.1-0.8-0.5-1.6-1.1-2.2
	C13.6,6.4,12.6,6,11.6,6c-0.8,0-1.5,0.2-2.1,0.6C9.1,6.2,8.6,6,8,6C6.9,6,6.1,6.9,6.1,8c0,1,0.6,1.7,1.5,1.9c0,0,0,0.2,0,0.2
	c-0.4,0.1-0.7,0.3-1,0.5C6.2,11,6,11.5,6,12V13.7z M14.5,10v1H15c0.5,0,1,0.5,1,1v3c0,0.5-0.5,1-1,1l-7,0c-0.5,0-1-0.5-1-1v-3
	c0-0.5,0.4-1,1-1h0.6v-1c0-1.6,1.3-3,2.9-3C13.2,7,14.5,8.4,14.5,10z M11.5,12c-0.5,0-1,0.4-1,1c0,0.4,0.2,0.7,0.6,0.9L11,14l-0.5,1
	l1,0l1,0L12,14L12,13.9c0.3-0.2,0.6-0.5,0.6-0.9C12.5,12.5,12.1,12,11.5,12z M11.5,9c-0.5,0-1,0.4-1,1v1h1.9v-1
	C12.5,9.5,12.1,9,11.5,9z"/>
</svg>
